rocket.svg

<svg fill="currentColor" viewBox="0 0 24 24"><path d="m20 22-3.86-1.55c.7-1.53 1.2-3.11 1.51-4.72zM7.86 20.45 4 22l2.35-6.27c.31 1.61.81 3.19 1.51 4.72M12 2s5 2 5 10c0 3.1-.75 5.75-1.67 7.83A2 2 0 0 1 13.5 21h-3a2 2 0 0 1-1.83-1.17C7.76 17.75 7 15.1 7 12c0-8 5-10 5-10m0 10c1.1 0 2-.9 2-2s-.9-2-2-2-2 .9-2 2 .9 2 2 2"/></svg>

<svg  viewBox="0 0 24 24" fill="currentColor"><path  d="M20 22L16.14 20.45C16.84 18.92 17.34 17.34 17.65 15.73L20 22M7.86 20.45L4 22L6.35 15.73C6.66 17.34 7.16 18.92 7.86 20.45M12 2C12 2 17 4 17 12C17 15.1 16.25 17.75 15.33 19.83C15 20.55 14.29 21 13.5 21H10.5C9.71 21 9 20.55 8.67 19.83C7.76 17.75 7 15.1 7 12C7 4 12 2 12 2M12 12C13.1 12 14 11.1 14 10C14 8.9 13.1 8 12 8C10.9 8 10 8.9 10 10C10 11.1 10.9 12 12 12Z"/></svg>
